X:1
T:Harvest Home
M:4/4
L:1/8
R:hornpipe
K:D
|: (3GFE | DAFA DAFA | defe dcBA | eAfA gAfA | (3efe (3dcB (3ABA (3GFE |
DAFA DAFA | defe dcBA | eAfA gece | d2 f2 d2::
cd | eA (3AAA fA (3AAA | gAfA eA (3AAA | eAfA gAfA | (3efe (3dcB (3ABA (3GFE |
DAFA DAFA | defe dcBA | eAfA gece | d2 f2 d2 :|
